src/lib/packages/icons/src/assets/line/arrow-back-circle.svg

<svg width="24" height="24" viewBox="0 0 24 24" fill="none" xmlns="http://www.w3.org/2000/svg">
<path d="M17.25 12.75C17.25 14.404 15.904 15.75 14.25 15.75H9C8.586 15.75 8.25 15.414 8.25 15C8.25 14.586 8.586 14.25 9 14.25H14.25C15.077 14.25 15.75 13.577 15.75 12.75C15.75 11.923 15.077 11.25 14.25 11.25H9.31104L9.53101 11.47C9.82401 11.763 9.82401 12.238 9.53101 12.531C9.38501 12.677 9.19298 12.751 9.00098 12.751C8.80898 12.751 8.61695 12.678 8.47095 12.531L6.97095 11.031C6.90195 10.962 6.84708 10.8791 6.80908 10.7871C6.73308 10.6041 6.73308 10.3971 6.80908 10.2141C6.84708 10.1221 6.90195 10.039 6.97095 9.96997L8.47095 8.46997C8.76395 8.17697 9.23898 8.17697 9.53198 8.46997C9.82498 8.76297 9.82498 9.23801 9.53198 9.53101L9.31201 9.75098H14.251C15.904 9.74998 17.25 11.096 17.25 12.75ZM22.75 12C22.75 17.928 17.928 22.75 12 22.75C6.072 22.75 1.25 17.928 1.25 12C1.25 6.072 6.072 1.25 12 1.25C17.928 1.25 22.75 6.072 22.75 12ZM21.25 12C21.25 6.899 17.101 2.75 12 2.75C6.899 2.75 2.75 6.899 2.75 12C2.75 17.101 6.899 21.25 12 21.25C17.101 21.25 21.25 17.101 21.25 12Z" fill="currentColor"/>
</svg>

<svg xmlns="http://www.w3.org/2000/svg" width="24" height="24" fill="none"><path fill="currentColor" d="M17.25 12.75c0 1.654-1.346 3-3 3H9a.75.75 0 0 1 0-1.5h5.25c.827 0 1.5-.673 1.5-1.5s-.673-1.5-1.5-1.5H9.311l.22.22a.75.75 0 0 1-1.06 1.061l-1.5-1.5a.748.748 0 0 1-.162-.817.75.75 0 0 1 .162-.244l1.5-1.5a.75.75 0 1 1 1.061 1.061l-.22.22h4.939a3.002 3.002 0 0 1 2.999 2.999Zm5.5-.75c0 5.928-4.822 10.75-10.75 10.75S1.25 17.928 1.25 12 6.072 1.25 12 1.25 22.75 6.072 22.75 12Zm-1.5 0c0-5.101-4.149-9.25-9.25-9.25S2.75 6.899 2.75 12s4.149 9.25 9.25 9.25 9.25-4.149 9.25-9.25Z"/></svg>
